img/ico/advantage-guarantee-ico.svg

<svg width="70" height="70" viewBox="0 0 70 70" fill="none" xmlns="http://www.w3.org/2000/svg">
<path d="M34.9999 44.8439C32.0169 44.8439 29.0835 44.0814 26.4781 42.6288C23.8727 41.1762 21.6818 39.0817 20.1136 36.5442C18.5453 34.0067 17.6517 31.1105 17.5176 28.1305C17.3835 25.1506 18.0134 22.1858 19.3475 19.5177C20.6815 16.8496 22.6754 14.5669 25.1398 12.8861C27.6043 11.2054 30.4574 10.1825 33.4283 9.91465C36.3993 9.64676 39.3894 10.1427 42.1147 11.3555C44.84 12.5683 47.2101 14.4575 48.9999 16.8439C49.174 17.076 49.2487 17.3677 49.2077 17.6549C49.1667 17.942 49.0133 18.2011 48.7812 18.3752C48.5491 18.5492 48.2574 18.624 47.9703 18.5829C47.6831 18.5419 47.424 18.3885 47.2499 18.1564C44.9067 15.0516 41.4653 12.9597 37.6303 12.3091C33.7952 11.6584 29.8565 12.4982 26.6203 14.6564C23.3841 16.8147 21.0952 20.1283 20.2221 23.9189C19.349 27.7095 19.9577 31.6905 21.9237 35.047C23.8896 38.4034 27.0641 40.8816 30.7974 41.9742C34.5307 43.0668 38.5403 42.6912 42.0057 40.9242C45.4711 39.1573 48.1301 36.1327 49.4385 32.4694C50.7469 28.8062 50.6056 24.7814 49.0437 21.2189C48.9771 21.0862 48.9383 20.9413 48.9295 20.7931C48.9208 20.6449 48.9423 20.4964 48.9928 20.3568C49.0433 20.2171 49.1217 20.0892 49.2232 19.9809C49.3247 19.8725 49.4472 19.7859 49.5833 19.7265C49.7193 19.667 49.8661 19.6358 50.0146 19.6349C50.163 19.634 50.3102 19.6633 50.4469 19.7211C50.5837 19.7788 50.7073 19.8639 50.8102 19.9709C50.913 20.078 50.993 20.2049 51.0452 20.3439C52.2078 23.0076 52.6886 25.9188 52.4443 28.8149C52.2 31.7109 51.2383 34.5004 49.6461 36.9317C48.0538 39.363 45.8811 41.3595 43.324 42.7408C40.767 44.1222 37.9062 44.845 34.9999 44.8439ZM40.0531 35.4377C40.2228 35.3161 40.3541 35.1486 40.4316 34.9547C40.5092 34.7609 40.5296 34.549 40.4906 34.3439L39.7468 29.9689L42.8968 26.8955C43.0443 26.7535 43.1489 26.573 43.1989 26.3746C43.2488 26.1761 43.2421 25.9676 43.1794 25.7727C43.1167 25.5779 43.0007 25.4045 42.8444 25.2724C42.688 25.1402 42.4978 25.0546 42.2952 25.0252L37.9202 24.3908L35.9843 20.508C35.8936 20.326 35.7539 20.1729 35.581 20.0659C35.4081 19.9588 35.2088 19.9021 35.0054 19.9021C34.802 19.9021 34.6027 19.9588 34.4298 20.0659C34.2569 20.1729 34.1172 20.326 34.0265 20.508L32.0796 24.4564L27.7046 25.0908C27.5021 25.1202 27.3118 25.2058 27.1555 25.338C26.9992 25.4701 26.8831 25.6435 26.8205 25.8383C26.7578 26.0332 26.7511 26.2417 26.801 26.4402C26.851 26.6387 26.9556 26.8192 27.1031 26.9611L30.2531 30.0346L29.5093 34.4096C29.476 34.6102 29.4992 34.8162 29.5765 35.0044C29.6538 35.1925 29.782 35.3554 29.9468 35.4747C30.1115 35.594 30.3063 35.665 30.5092 35.6797C30.712 35.6944 30.915 35.6523 31.0953 35.558L34.9999 33.4689L38.8937 35.5143C39.0743 35.6079 39.2775 35.6494 39.4804 35.6339C39.6832 35.6185 39.8778 35.5467 40.0421 35.4268L40.0531 35.4377ZM34.4968 31.2705L32.0468 32.5502L32.5171 29.8267C32.5458 29.6526 32.532 29.4741 32.4767 29.3065C32.4215 29.1389 32.3265 28.9872 32.1999 28.8643L30.2202 26.9392L32.9546 26.5455C33.1299 26.5192 33.2961 26.4507 33.439 26.3459C33.5819 26.2411 33.6972 26.1032 33.7749 25.9439L34.9999 23.4611L36.2249 25.933C36.3027 26.0922 36.418 26.2302 36.5609 26.3349C36.7038 26.4397 36.87 26.5082 37.0452 26.5346L39.7796 26.9283L37.7999 28.8533C37.6733 28.9763 37.5784 29.128 37.5231 29.2956C37.4679 29.4632 37.4541 29.6417 37.4827 29.8158L37.9531 32.5392L35.514 31.2596C35.3571 31.1772 35.1826 31.1341 35.0054 31.1341C34.8282 31.1341 34.6537 31.1772 34.4968 31.2596V31.2705ZM40.5671 51.7127C41.7609 51.3082 42.8001 50.5441 43.5421 49.5252C43.9644 48.9905 44.4748 48.5318 45.0515 48.1689C45.7082 47.936 46.4 47.8176 47.0968 47.8189C48.3318 47.8571 49.549 47.5175 50.5859 46.8455C51.4737 45.9818 52.0767 44.8675 52.314 43.6518C52.4656 42.977 52.7319 42.3332 53.1015 41.7486C53.5877 41.2621 54.1537 40.8626 54.7749 40.5674C55.9145 40.0648 56.8726 39.225 57.5203 38.1611C57.9428 37.0073 58.0038 35.7521 57.6953 34.5627C57.5393 33.8778 57.5023 33.1711 57.5859 32.4736C57.809 31.8394 58.1381 31.2477 58.5593 30.7236C59.3667 29.7683 59.8628 28.5891 59.9812 27.3439C59.8609 26.0887 59.3568 24.9009 58.5374 23.9424C58.1161 23.4185 57.7869 22.8267 57.564 22.1924C57.4806 21.4949 57.5176 20.7883 57.6734 20.1033C57.9826 18.914 57.9216 17.6586 57.4984 16.5049C56.8513 15.4406 55.893 14.6006 54.7531 14.0986C54.1318 13.8034 53.5658 13.4039 53.0796 12.9174C52.7103 12.3327 52.4439 11.689 52.2921 11.0142C52.0541 9.79875 51.4513 8.68466 50.564 7.8205C49.5272 7.14849 48.3099 6.80889 47.0749 6.84706C46.3782 6.84843 45.6863 6.73004 45.0296 6.49706C44.4561 6.12978 43.9494 5.66743 43.5312 5.12988C42.7892 4.111 41.7499 3.34685 40.5562 2.94238C39.345 2.79097 38.1165 3.01226 37.0343 3.57675C36.3974 3.90083 35.7091 4.11178 34.9999 4.20019C34.2935 4.12554 33.6053 3.92943 32.9656 3.6205C31.8831 3.05667 30.6548 2.83542 29.4437 2.98613C28.2499 3.3906 27.2107 4.15475 26.4687 5.17363C26.0465 5.70836 25.536 6.16704 24.9593 6.52988C24.3026 6.76286 23.6108 6.88125 22.914 6.87988C21.679 6.8417 20.4618 7.18131 19.4249 7.85331C18.5371 8.71705 17.9341 9.83132 17.6968 11.0471C17.5453 11.7219 17.2789 12.3656 16.9093 12.9502C16.4231 13.4367 15.8571 13.8363 15.2359 14.1314C14.0963 14.634 13.1382 15.4738 12.4906 16.5377C12.3737 16.7818 12.2856 17.0388 12.2281 17.3033C12.1657 17.5934 12.2211 17.8964 12.3821 18.1456C12.5432 18.3948 12.7966 18.5699 13.0867 18.6322C13.3767 18.6946 13.6797 18.6392 13.9289 18.4781C14.1781 18.3171 14.3532 18.0637 14.4156 17.7736C14.4375 17.6754 14.4705 17.58 14.514 17.4893C14.9909 16.8496 15.6286 16.3477 16.3624 16.0346C17.2107 15.5938 17.9678 14.9962 18.5937 14.2736C19.1473 13.4771 19.5444 12.5825 19.764 11.6377C19.911 10.8567 20.2619 10.1284 20.7812 9.52675C21.4821 9.16202 22.2668 8.98848 23.0562 9.02363C24.031 9.02042 24.9962 8.83109 25.8999 8.46581C26.7404 7.99494 27.4829 7.36749 28.0874 6.61738C28.56 5.9657 29.1982 5.45215 29.9359 5.12988C30.6989 5.11855 31.452 5.30308 32.1234 5.66581C33.0159 6.08923 33.9811 6.33797 34.9671 6.39863C35.9531 6.33771 36.9183 6.08898 37.8109 5.66581C38.4822 5.30308 39.2354 5.11855 39.9984 5.12988C40.7575 5.42519 41.4226 5.92026 41.9234 6.56269C42.5277 7.313 43.2703 7.94047 44.1109 8.41113C45.0139 8.78015 45.9791 8.97319 46.9546 8.97988C47.7442 8.96061 48.525 9.1492 49.2187 9.52675C49.7318 10.1339 50.0752 10.8659 50.214 11.6486C50.4403 12.595 50.8449 13.4897 51.4062 14.2846C52.059 14.9988 52.8423 15.5817 53.714 16.0018C54.4453 16.3299 55.0758 16.8472 55.5406 17.5002C55.7438 18.2597 55.7438 19.0594 55.5406 19.8189C55.3256 20.7742 55.2959 21.7618 55.4531 22.7283C55.7258 23.643 56.1714 24.4969 56.7656 25.2439C57.3239 25.859 57.7023 26.6158 57.8593 27.4314C57.7023 28.2471 57.3239 29.0039 56.7656 29.6189C56.1716 30.3661 55.7261 31.22 55.4531 32.1346C55.2959 33.101 55.3256 34.0887 55.5406 35.0439C55.7433 35.8036 55.7433 36.6031 55.5406 37.3627C55.0637 38.0023 54.4259 38.5042 53.6921 38.8174C52.8378 39.2035 52.0627 39.745 51.4062 40.4143C50.8526 41.2108 50.4555 42.1053 50.2359 43.0502C50.0889 43.8312 49.738 44.5595 49.2187 45.1611C48.5178 45.5259 47.7331 45.6994 46.9437 45.6643C45.9689 45.6675 45.0037 45.8568 44.0999 46.2221C43.2595 46.6929 42.5169 47.3204 41.9124 48.0705C41.4398 48.7222 40.8017 49.2357 40.064 49.558C39.301 49.5698 38.5477 49.3853 37.8765 49.0221C36.984 48.5986 36.0187 48.3499 35.0327 48.2893C34.0468 48.3502 33.0816 48.5989 32.189 49.0221C31.5178 49.3853 30.7646 49.5698 30.0015 49.558C29.2424 49.2627 28.5773 48.7676 28.0765 48.1252C27.4722 47.3749 26.7296 46.7474 25.889 46.2768C24.986 45.9077 24.0207 45.7147 23.0452 45.708C22.2557 45.7273 21.4749 45.5387 20.7812 45.1611C20.2681 44.554 19.9247 43.8219 19.7859 43.0392C19.5596 42.0928 19.155 41.1982 18.5937 40.4033C17.9409 39.6891 17.1576 39.1062 16.2859 38.6861C15.5546 38.358 14.9241 37.8407 14.4593 37.1877C14.256 36.4281 14.256 35.6285 14.4593 34.8689C14.6743 33.9137 14.704 32.926 14.5468 31.9596C14.274 31.0449 13.8285 30.1909 13.2343 29.4439C12.676 28.8289 12.2976 28.0721 12.1406 27.2564C12.2981 26.4409 12.6765 25.6843 13.2343 25.0689L13.5953 24.5439C14.0297 23.9431 14.3521 23.2687 14.5468 22.5533C14.6617 21.8837 14.6617 21.1995 14.5468 20.5299C14.5296 20.3862 14.4842 20.2474 14.4133 20.1213C14.3424 19.9952 14.2474 19.8843 14.1337 19.7949C14.0199 19.7055 13.8897 19.6394 13.7504 19.6004C13.6111 19.5614 13.4654 19.5501 13.3218 19.5674C13.1782 19.5846 13.0393 19.63 12.9132 19.7009C12.7871 19.7718 12.6762 19.8668 12.5869 19.9805C12.4975 20.0943 12.4314 20.2245 12.3923 20.3638C12.3533 20.5031 12.3421 20.6487 12.3593 20.7924C12.4313 21.2159 12.4313 21.6485 12.3593 22.0721C12.22 22.5273 12.0056 22.9562 11.7249 23.3408L11.3859 23.833C10.5732 24.831 10.0949 26.0592 10.0187 27.3439C10.139 28.5992 10.6431 29.7869 11.4624 30.7455C11.8838 31.2694 12.213 31.8612 12.4359 32.4955C12.5193 33.193 12.4823 33.8996 12.3265 34.5846C12.0173 35.7739 12.0783 37.0293 12.5015 38.183C13.1486 39.2473 14.1069 40.0872 15.2468 40.5893C15.8681 40.8844 16.4341 41.284 16.9202 41.7705C17.2896 42.3552 17.556 42.9989 17.7078 43.6736C17.9457 44.8891 18.5486 46.0032 19.4359 46.8674C20.4727 47.5394 21.69 47.879 22.9249 47.8408C23.6217 47.8394 24.3136 47.9578 24.9703 48.1908C25.5468 48.5538 26.0572 49.0125 26.4796 49.5471C27.2216 50.5659 28.2609 51.3301 29.4546 51.7346C30.6657 51.8846 31.8939 51.6634 32.9765 51.1002C33.6107 50.7811 34.2952 50.5739 34.9999 50.4877C35.7064 50.5623 36.3946 50.7584 37.0343 51.0674C37.9032 51.4797 38.842 51.7246 39.8015 51.7892C40.0555 51.7884 40.3087 51.7591 40.5562 51.7018L40.5671 51.7127ZM17.4999 40.5783L15.1812 66.1064L29.8046 51.4721C29.9838 51.2628 30.0774 50.9937 30.0668 50.7184C30.0562 50.4431 29.9421 50.182 29.7473 49.9872C29.5525 49.7924 29.2914 49.6783 29.0161 49.6677C28.7408 49.6571 28.4717 49.7507 28.2624 49.9299L15.1374 63.0549L13.9452 55.8689C13.9075 55.6448 13.8008 55.438 13.6401 55.2772C13.4794 55.1165 13.2725 55.0098 13.0484 54.9721L5.8515 53.7689L18.0249 41.5627C18.2041 41.3535 18.2978 41.0843 18.2871 40.809C18.2765 40.5338 18.1624 40.2726 17.9676 40.0779C17.7728 39.8831 17.5117 39.769 17.2364 39.7583C16.9611 39.7477 16.692 39.8413 16.4827 40.0205L2.79994 53.7252C2.65895 53.8672 2.55963 54.0452 2.5128 54.2398C2.46596 54.4343 2.4734 54.638 2.53431 54.8286C2.59523 55.0193 2.70727 55.1895 2.85825 55.3209C3.00922 55.4522 3.19334 55.5397 3.39056 55.5736L11.8999 56.9955L13.3218 65.5049C13.3558 65.7021 13.4432 65.8862 13.5746 66.0372C13.7059 66.1882 13.8762 66.3002 14.0668 66.3611C14.2574 66.422 14.4611 66.4295 14.6557 66.3826C14.8502 66.3358 15.0282 66.2365 15.1702 66.0955L17.4999 40.5783ZM59.7296 47.808C59.9333 47.6031 60.0477 47.3259 60.0477 47.0369C60.0477 46.748 59.9333 46.4707 59.7296 46.2658L53.5937 40.1518C53.3845 39.9726 53.1153 39.8789 52.84 39.8896C52.5648 39.9002 52.3036 40.0143 52.1089 40.2091C51.9141 40.4039 51.7999 40.665 51.7893 40.9403C51.7787 41.2156 51.8723 41.4847 52.0515 41.6939L58.1546 47.7971C58.3596 48.0008 58.6368 48.1151 58.9257 48.1151C59.2147 48.1151 59.4919 48.0008 59.6968 47.7971L59.7296 47.808ZM55.9343 66.4018C56.1257 66.34 56.2965 66.2267 56.4277 66.0743C56.5589 65.9218 56.6455 65.7362 56.6781 65.5377L58.0999 57.0283L66.6093 55.6064C66.8065 55.5725 66.9907 55.4851 67.1416 55.3537C67.2926 55.2223 67.4046 55.0521 67.4656 54.8615C67.5265 54.6708 67.5339 54.4671 67.4871 54.2726C67.4402 54.078 67.3409 53.9 67.1999 53.758L64.0937 50.6299C63.8844 50.4507 63.6153 50.3571 63.34 50.3677C63.0648 50.3783 62.8036 50.4924 62.6089 50.6872C62.4141 50.882 62.2999 51.1431 62.2893 51.4184C62.2787 51.6937 62.3723 51.9628 62.5515 52.1721L64.1484 53.7689L56.9624 54.9611C56.7383 54.9989 56.5315 55.1055 56.3707 55.2663C56.21 55.427 56.1033 55.6338 56.0656 55.858L54.8734 63.0439L42.339 50.5205C42.1298 50.3413 41.8606 50.2477 41.5854 50.2583C41.3101 50.2689 41.049 50.3831 40.8542 50.5779C40.6594 50.7726 40.5453 51.0338 40.5346 51.309C40.524 51.5843 40.6176 51.8535 40.7968 52.0627L54.8187 66.1064C54.959 66.247 55.1349 66.3468 55.3276 66.3949C55.5203 66.4431 55.7225 66.4379 55.9124 66.3799L55.9343 66.4018ZM61.2499 48.1252C61.0336 48.1252 60.8222 48.1893 60.6423 48.3095C60.4624 48.4297 60.3222 48.6005 60.2394 48.8004C60.1567 49.0002 60.135 49.2202 60.1772 49.4323C60.2194 49.6445 60.3236 49.8394 60.4765 49.9923C60.6295 50.1453 60.8244 50.2495 61.0366 50.2917C61.2487 50.3339 61.4686 50.3122 61.6685 50.2294C61.8684 50.1466 62.0392 50.0065 62.1594 49.8266C62.2795 49.6467 62.3437 49.4353 62.3437 49.2189C62.3437 48.9289 62.2285 48.6507 62.0233 48.4455C61.8182 48.2404 61.54 48.1252 61.2499 48.1252Z" fill="#DC3545"/>
</svg>

<svg xmlns="http://www.w3.org/2000/svg" width="70" height="70" fill="currentColor" viewBox="0 0 70 70" class="svg-icon">
    <path
        d="M35 44.844a17.5 17.5 0 1 1 14-28 1.094 1.094 0 1 1-1.75 1.312 15.247 15.247 0 1 0 1.794 3.063 1.094 1.094 0 1 1 2.001-.875A17.5 17.5 0 0 1 35 44.844m5.053-9.406a1.09 1.09 0 0 0 .438-1.094l-.744-4.375 3.15-3.074a1.094 1.094 0 0 0-.602-1.87l-4.375-.634-1.936-3.883a1.094 1.094 0 0 0-1.958 0l-1.946 3.948-4.375.635a1.094 1.094 0 0 0-.602 1.87l3.15 3.074-.744 4.375a1.094 1.094 0 0 0 1.586 1.148L35 33.468l3.894 2.046a1.09 1.09 0 0 0 1.148-.087zm-5.556-4.168-2.45 1.28.47-2.723a1.1 1.1 0 0 0-.317-.963l-1.98-1.925 2.735-.393a1.1 1.1 0 0 0 .82-.602L35 23.46l1.225 2.472a1.1 1.1 0 0 0 .82.602l2.735.393-1.98 1.925a1.1 1.1 0 0 0-.317.963l.47 2.723-2.439-1.28a1.1 1.1 0 0 0-1.017 0zm6.07 20.443a6.1 6.1 0 0 0 2.975-2.188 6 6 0 0 1 1.51-1.356 6.1 6.1 0 0 1 2.045-.35 6.07 6.07 0 0 0 3.489-.974 6.1 6.1 0 0 0 1.728-3.193 6 6 0 0 1 .788-1.903 6 6 0 0 1 1.673-1.182 6.1 6.1 0 0 0 2.745-2.406 6.05 6.05 0 0 0 .175-3.598 6.1 6.1 0 0 1-.11-2.09 6 6 0 0 1 .974-1.75 6.14 6.14 0 0 0 1.422-3.38 6.14 6.14 0 0 0-1.444-3.4 5.9 5.9 0 0 1-.973-1.75 6.1 6.1 0 0 1 .11-2.09 6.04 6.04 0 0 0-.176-3.598 6.1 6.1 0 0 0-2.745-2.406 6 6 0 0 1-1.673-1.182 6 6 0 0 1-.788-1.903 6.1 6.1 0 0 0-1.728-3.193 6.07 6.07 0 0 0-3.49-.974 6.1 6.1 0 0 1-2.044-.35A6 6 0 0 1 43.53 5.13a6.1 6.1 0 0 0-2.975-2.188 6 6 0 0 0-3.522.635A6.2 6.2 0 0 1 35 4.2a6.2 6.2 0 0 1-2.034-.58 6 6 0 0 0-3.522-.634 6.1 6.1 0 0 0-2.975 2.188 6 6 0 0 1-1.51 1.356 6.1 6.1 0 0 1-2.045.35 6.07 6.07 0 0 0-3.49.973 6.1 6.1 0 0 0-1.727 3.194 6 6 0 0 1-.788 1.903 6 6 0 0 1-1.673 1.181 6.1 6.1 0 0 0-2.745 2.407 3.5 3.5 0 0 0-.263.765 1.119 1.119 0 1 0 2.188.47q.032-.147.098-.284a4.5 4.5 0 0 1 1.848-1.454 7.6 7.6 0 0 0 2.232-1.761 7.7 7.7 0 0 0 1.17-2.636 4.5 4.5 0 0 1 1.017-2.111 4.5 4.5 0 0 1 2.275-.503 7.7 7.7 0 0 0 2.844-.558 7.6 7.6 0 0 0 2.187-1.849 4.5 4.5 0 0 1 1.849-1.487 4.46 4.46 0 0 1 2.187.536 7.7 7.7 0 0 0 2.844.733 7.8 7.8 0 0 0 2.844-.733 4.46 4.46 0 0 1 2.187-.536c.76.295 1.425.79 1.925 1.433a7.5 7.5 0 0 0 2.188 1.848 7.7 7.7 0 0 0 2.844.569c.79-.02 1.57.17 2.264.547.513.607.856 1.339.995 2.122.226.946.63 1.84 1.192 2.636a7.6 7.6 0 0 0 2.308 1.717 4.5 4.5 0 0 1 1.827 1.498c.203.76.203 1.56 0 2.319a7.7 7.7 0 0 0-.088 2.91 7.5 7.5 0 0 0 1.313 2.515 4.53 4.53 0 0 1 1.093 2.187 4.53 4.53 0 0 1-1.093 2.188 7.5 7.5 0 0 0-1.313 2.516 7.7 7.7 0 0 0 .088 2.909c.202.76.202 1.56 0 2.319a4.5 4.5 0 0 1-1.849 1.454 7.6 7.6 0 0 0-2.286 1.597 7.7 7.7 0 0 0-1.17 2.636 4.5 4.5 0 0 1-1.017 2.111c-.701.365-1.486.538-2.275.503a7.7 7.7 0 0 0-2.844.558 7.6 7.6 0 0 0-2.188 1.849 4.5 4.5 0 0 1-1.848 1.487 4.45 4.45 0 0 1-2.187-.536 7.7 7.7 0 0 0-2.844-.733c-.986.061-1.951.31-2.844.733a4.45 4.45 0 0 1-2.187.536 4.5 4.5 0 0 1-1.925-1.433 7.5 7.5 0 0 0-2.188-1.848 7.7 7.7 0 0 0-2.844-.569c-.79.02-1.57-.17-2.264-.547a4.5 4.5 0 0 1-.995-2.122 7.7 7.7 0 0 0-1.192-2.636 7.6 7.6 0 0 0-2.308-1.717 4.5 4.5 0 0 1-1.827-1.498 4.5 4.5 0 0 1 0-2.32 7.7 7.7 0 0 0 .088-2.908 7.5 7.5 0 0 0-1.313-2.516 4.53 4.53 0 0 1-1.093-2.188 4.54 4.54 0 0 1 1.093-2.187l.361-.525c.435-.6.757-1.275.952-1.99a6 6 0 0 0 0-2.024 1.1 1.1 0 1 0-2.188.262c.072.424.072.856 0 1.28-.139.455-.353.884-.634 1.269l-.34.492a6.14 6.14 0 0 0-1.366 3.51 6.14 6.14 0 0 0 1.443 3.403c.422.523.751 1.115.974 1.75a6.1 6.1 0 0 1-.11 2.089 6.04 6.04 0 0 0 .175 3.598 6.1 6.1 0 0 0 2.746 2.406 6 6 0 0 1 1.673 1.181 6 6 0 0 1 .788 1.904 6.1 6.1 0 0 0 1.728 3.193 6.07 6.07 0 0 0 3.489.974 6.1 6.1 0 0 1 2.045.35 6 6 0 0 1 1.51 1.356 6.1 6.1 0 0 0 2.975 2.188 6.03 6.03 0 0 0 3.522-.635A6.2 6.2 0 0 1 35 50.488c.706.074 1.395.27 2.034.58a7.7 7.7 0 0 0 2.767.721q.384 0 .755-.087zM17.5 40.578 15.18 66.106l14.624-14.634a1.094 1.094 0 0 0-1.543-1.542L15.137 63.055l-1.192-7.186a1.09 1.09 0 0 0-.897-.897L5.852 53.77l12.173-12.206a1.093 1.093 0 0 0-1.542-1.543L2.8 53.726a1.093 1.093 0 0 0 .59 1.849l8.51 1.422 1.422 8.509a1.094 1.094 0 0 0 1.848.59zm42.23 7.23a1.094 1.094 0 0 0 0-1.542l-6.136-6.114a1.093 1.093 0 0 0-1.543 1.542l6.104 6.103a1.094 1.094 0 0 0 1.542 0zm-3.796 18.594a1.1 1.1 0 0 0 .744-.864l1.422-8.51 8.51-1.422a1.092 1.092 0 0 0 .59-1.848l-3.106-3.128a1.094 1.094 0 0 0-1.542 1.542l1.596 1.597-7.186 1.192a1.09 1.09 0 0 0-.896.897l-1.193 7.186L42.34 50.52a1.094 1.094 0 0 0-1.542 1.542l14.022 14.043a1.09 1.09 0 0 0 1.093.274zm5.316-18.277a1.094 1.094 0 1 0 0 2.187 1.094 1.094 0 0 0 0-2.187" />
</svg>
